assets/img/partners/17.svg

<svg width="98" height="26" viewBox="0 0 98 26" fill="none" xmlns="http://www.w3.org/2000/svg">
<g clip-path="url(#clip0_4252_11827)">
<path d="M56.556 0.823242C52.2147 0.823242 50.2638 2.5706 50.2638 6.15681V9.99003C50.2638 12.3686 51.0332 13.9513 52.9382 14.6923L48.9724 25.1582H53.5793L53.8449 24.4172C53.8449 24.4172 53.8449 24.3897 53.8724 24.3623L57.1788 15.351H58.287V25.1308H62.5733V0.823242H56.5651H56.556ZM58.2229 12.1033H56.5285C55.0447 12.1033 54.4677 11.2617 54.4677 10.0175V6.15681C54.4677 4.94006 55.0539 4.0984 56.5285 4.0984H58.2229V12.1033Z" fill="#1D1D1B"/>
<path d="M4.9183 12.1033H0.659424V0.841553H6.61269C10.954 0.841553 12.9048 2.58891 12.9048 6.17512V12.0942H8.67344V6.14768C8.67344 4.93093 8.08727 4.08927 6.61269 4.08927H4.9183V12.0942V12.1033Z" fill="#1D1D1B"/>
<path d="M0 12.7346H4.28636V22.5144H5.98075C7.46449 22.5144 8.0415 21.6727 8.0415 20.4285V12.7438H12.2729V20.4559C12.2729 24.0787 10.3129 25.8444 5.98075 25.8444H0V12.7438V12.7346Z" fill="#1D1D1B"/>
<path d="M19.8108 0.823242H15.5244V12.0759H19.8108V0.823242Z" fill="#1D1D1B"/>
<path d="M19.1511 12.7346H14.8647V25.817H19.1511V12.7346Z" fill="#1D1D1B"/>
<path d="M30.1786 12.1034H23.9322C22.2653 10.411 21.8989 8.85573 21.8989 5.86418C21.8989 2.37861 23.804 0.658691 28.0629 0.658691C32.3217 0.658691 34.2268 2.37861 34.2268 5.86418V9.66995H29.9954V5.86418C29.9954 4.72977 29.4642 3.93385 28.0629 3.93385C26.6615 3.93385 26.1303 4.70232 26.1303 5.86418C26.1303 7.73962 26.3959 8.66362 27.8522 9.9627L30.1786 12.1034Z" fill="#1D1D1B"/>
<path d="M23.2728 12.7347H29.5374L30.9937 14.0521C33.1094 15.9276 33.5857 17.5102 33.5857 20.7854C33.5857 24.271 31.6531 25.9909 27.4217 25.9909C23.1903 25.9909 21.2578 24.271 21.2578 20.7854V16.9247H25.4892V20.758C25.4892 21.8924 26.0204 22.6883 27.4217 22.6883C28.823 22.6883 29.3543 21.9198 29.3543 20.758C29.3543 18.8825 29.0887 17.9585 27.6324 16.6594L23.7948 13.2288C23.5842 13.0732 23.4285 12.9086 23.2636 12.7256L23.2728 12.7347Z" fill="#1D1D1B"/>
<path d="M48.8534 0.823242V4.12585H44.274V12.1033H39.9876V4.12585H35.4082V0.823242H48.8443H48.8534Z" fill="#1D1D1B"/>
<path d="M43.6145 12.7346H39.3281V25.817H43.6145V12.7346Z" fill="#1D1D1B"/>
<path d="M89.9035 11.4448H85.6172V5.20549C85.6447 1.71992 87.5497 0 91.8086 0C96.0675 0 98 1.71992 98 5.20549V11.4448H93.7136V5.20549C93.7136 4.07108 93.1824 3.27516 91.7811 3.27516C90.3798 3.27516 89.9035 4.04363 89.9035 5.20549V11.4448Z" fill="#1D1D1B"/>
<path d="M84.9854 20.1359V12.1035H89.2717V20.1359C89.2717 21.2703 89.7754 22.0662 91.1493 22.0662C92.5231 22.0662 93.0818 21.2977 93.0818 20.1359V12.1035H97.3407V20.1359C97.3407 23.6215 95.3807 25.3414 91.1493 25.3414C86.9179 25.3414 84.9854 23.6215 84.9854 20.1359Z" fill="#1D1D1B"/>
<path d="M70.0105 0.155518H65.7241V11.4082H70.0105V0.155518Z" fill="#1D1D1B"/>
<path d="M69.3511 12.1035H65.0647V25.1859H69.3511V12.1035Z" fill="#1D1D1B"/>
<path d="M80.0943 11.4448H75.808V3.45812H71.2285V0.155518H84.6646V3.45812H80.0852V11.4356L80.0943 11.4448Z" fill="#1D1D1B"/>
<path d="M79.435 12.1035H75.1487V25.1859H79.435V12.1035Z" fill="#1D1D1B"/>
</g>
<defs>
<clipPath id="clip0_4252_11827">
<rect width="98" height="26" fill="white"/>
</clipPath>
</defs>
</svg>

<svg width="98" height="26" fill="none" xmlns="http://www.w3.org/2000/svg"><g clip-path="url(#a)" fill="#1D1D1B"><path d="M56.556.823c-4.341 0-6.292 1.748-6.292 5.334V9.99c0 2.379.77 3.961 2.674 4.702l-3.966 10.466h4.607l.266-.74s0-.028.027-.056l3.307-9.011h1.108v9.78h4.286V.823h-6.017Zm1.667 11.28h-1.694c-1.484 0-2.061-.841-2.061-2.085V6.156c0-1.217.586-2.059 2.06-2.059h1.695v8.005Zm-53.305 0H.66V.842h5.954c4.341 0 6.292 1.747 6.292 5.333v5.92H8.673V6.147c0-1.217-.586-2.059-2.06-2.059H4.918v8.015ZM0 12.735h4.286v9.78h1.695c1.483 0 2.06-.842 2.06-2.087v-7.684h4.232v7.712c0 3.623-1.96 5.388-6.292 5.388H0v-13.11ZM19.81.823h-4.286v11.253h4.287V.823Zm-.659 11.912h-4.286v13.082h4.286V12.735Zm11.028-.632h-6.247C22.265 10.411 21.9 8.856 21.9 5.864c0-3.485 1.905-5.205 6.164-5.205 4.259 0 6.164 1.72 6.164 5.205V9.67h-4.232V5.864c0-1.134-.53-1.93-1.932-1.93-1.401 0-1.933.768-1.933 1.93 0 1.876.266 2.8 1.722 4.099l2.327 2.14Zm-6.906.632h6.264l1.457 1.317c2.115 1.876 2.592 3.458 2.592 6.733 0 3.486-1.933 5.206-6.164 5.206-4.232 0-6.164-1.72-6.164-5.206v-3.86h4.231v3.833c0 1.134.531 1.93 1.933 1.93 1.401 0 1.932-.768 1.932-1.93 0-1.875-.265-2.8-1.722-4.099l-3.837-3.43a3.486 3.486 0 0 1-.531-.503l.009.009ZM48.853.823v3.303h-4.579v7.977h-4.286V4.126h-4.58V.823h13.446Zm-5.239 11.912h-4.286v13.082h4.286V12.735Zm46.289-1.29h-4.286v-6.24C85.645 1.72 87.55 0 91.81 0 96.067 0 98 1.72 98 5.205v6.24h-4.286v-6.24c0-1.134-.532-1.93-1.933-1.93s-1.878.769-1.878 1.93v6.24Zm-4.918 8.691v-8.032h4.287v8.032c0 1.134.503 1.93 1.877 1.93s1.933-.768 1.933-1.93v-8.032h4.259v8.032c0 3.486-1.96 5.205-6.192 5.205-4.231 0-6.164-1.72-6.164-5.205ZM70.01.156h-4.286v11.252h4.286V.156Zm-.659 11.948h-4.286v13.082h4.286V12.104Zm10.743-.659h-4.286V3.458h-4.58V.156h13.437v3.302h-4.58v7.978l.01.009Zm-.659.659h-4.286v13.082h4.286V12.104Z"/></g><defs><clipPath id="a"><path fill="#fff" d="M0 0h98v26H0z"/></clipPath></defs></svg>
